assets/images/instagram.svg

<?xml version="1.0" encoding="UTF-8"?>
<svg width="35px" height="35px" viewBox="0 0 35 35" version="1.1" xmlns="http://www.w3.org/2000/svg" xmlns:xlink="http://www.w3.org/1999/xlink">
    <!-- Generator: Sketch 52.6 (67491) - http://www.bohemiancoding.com/sketch -->
    <title>instagram</title>
    <desc>Created with Sketch.</desc>
    <defs>
        <radialGradient cx="26.5626266%" cy="107.702106%" fx="26.5626266%" fy="107.702106%" r="99.107386%" id="radialGradient-1">
            <stop stop-color="#FFDD55" offset="0%"></stop>
            <stop stop-color="#FFDD55" offset="10%"></stop>
            <stop stop-color="#FF543E" offset="50%"></stop>
            <stop stop-color="#C837AB" offset="100%"></stop>
        </radialGradient>
        <radialGradient cx="-16.7505274%" cy="7.20383154%" fx="-16.7505274%" fy="7.20383154%" r="44.3014085%" id="radialGradient-2">
            <stop stop-color="#3771C8" offset="0%"></stop>
            <stop stop-color="#3771C8" offset="12.8%"></stop>
            <stop stop-color="#6600FF" stop-opacity="0" offset="100%"></stop>
        </radialGradient>
    </defs>
    <g id="Symbols" stroke="none" stroke-width="1" fill="none" fill-rule="evenodd">
        <g id="logos/instagram">
            <g id="instagram">
                <path d="M17.5057126,0 C10.1996249,0 8.06287279,0.00753909946 7.64752782,0.0420035541 C6.14819436,0.166667949 5.21521594,0.402803314 4.19879168,0.908999992 C3.41547743,1.29807138 2.79770898,1.74907108 2.18801593,2.38127842 C1.07764779,3.53422213 0.404697407,4.95264984 0.161089368,6.63871558 C0.0426501,7.45724638 0.00819504025,7.62418358 0.00119635624,11.8051527 C-0.0014954453,13.1988091 0.00119635624,15.0329643 0.00119635624,17.493134 C0.00119635624,24.7952904 0.00927176087,26.930471 0.0442651809,27.3451215 C0.16539625,28.8044758 0.394199381,29.7226304 0.878723659,30.7269461 C1.80470339,32.6494165 3.573217,34.0926155 5.6566714,34.6311226 C6.37807421,34.8169076 7.17484746,34.9192239 8.19773205,34.9676896 C8.6311121,34.9865373 13.0483584,35 17.4682966,35 C21.8882347,35 26.3081728,34.9946149 26.7307857,34.9730746 C27.9151783,34.9173392 28.6029336,34.8249852 29.3633676,34.6284301 C31.460281,34.0872305 33.196493,32.6655717 34.1413153,30.716176 C34.6164183,29.7360931 34.8573345,28.7829355 34.9663525,27.39978 C34.9900403,27.098216 35,22.2901553 35,17.4885567 C35,12.6861504 34.9892328,7.88697505 34.9655449,7.58541107 C34.8551811,6.17990753 34.6142648,5.23482756 34.1238186,4.23589688 C33.7213943,3.41817385 33.2745552,2.80750679 32.625831,2.1831078 C31.4680872,1.07701421 30.0521996,0.403880328 28.3649784,0.160475117 C27.5474783,0.0422728077 27.3846243,0.00726984591 23.2015647,0 L17.5057126,0 Z" id="Path" fill="url(#radialGradient-1)"></path>
                <path d="M17.5057126,0 C10.1996249,0 8.06287279,0.00753909946 7.64752782,0.0420035541 C6.14819436,0.166667949 5.21521594,0.402803314 4.19879168,0.908999992 C3.41547743,1.29807138 2.79770898,1.74907108 2.18801593,2.38127842 C1.07764779,3.53422213 0.404697407,4.95264984 0.161089368,6.63871558 C0.0426501,7.45724638 0.00819504025,7.62418358 0.00119635624,11.8051527 C-0.0014954453,13.1988091 0.00119635624,15.0329643 0.00119635624,17.493134 C0.00119635624,24.7952904 0.00927176087,26.930471 0.0442651809,27.3451215 C0.16539625,28.8044758 0.394199381,29.7226304 0.878723659,30.7269461 C1.80470339,32.6494165 3.573217,34.0926155 5.6566714,34.6311226 C6.37807421,34.8169076 7.17484746,34.9192239 8.19773205,34.9676896 C8.6311121,34.9865373 13.0483584,35 17.4682966,35 C21.8882347,35 26.3081728,34.9946149 26.7307857,34.9730746 C27.9151783,34.9173392 28.6029336,34.8249852 29.3633676,34.6284301 C31.460281,34.0872305 33.196493,32.6655717 34.1413153,30.716176 C34.6164183,29.7360931 34.8573345,28.7829355 34.9663525,27.39978 C34.9900403,27.098216 35,22.2901553 35,17.4885567 C35,12.6861504 34.9892328,7.88697505 34.9655449,7.58541107 C34.8551811,6.17990753 34.6142648,5.23482756 34.1238186,4.23589688 C33.7213943,3.41817385 33.2745552,2.80750679 32.625831,2.1831078 C31.4680872,1.07701421 30.0521996,0.403880328 28.3649784,0.160475117 C27.5474783,0.0422728077 27.3846243,0.00726984591 23.2015647,0 L17.5057126,0 Z" id="Path" fill="url(#radialGradient-2)"></path>
                <path d="M17.0012188,5 C13.4705987,5 13.0275107,5.0154375 11.6408296,5.07854167 C10.2568568,5.14191667 9.31218034,5.36102083 8.48558839,5.6825 C7.63055865,6.01454167 6.90525943,6.45870833 6.18266857,7.1815625 C5.45953604,7.90414583 5.01536474,8.6294375 4.68223627,9.4841875 C4.35994125,10.3110417 4.14056396,11.2559792 4.07827165,12.6393958 C4.01625017,14.0260625 4,14.4694167 4,18 C4,21.5305833 4.0157085,21.9723125 4.07854248,23.3589792 C4.14218898,24.7429375 4.36129543,25.6876042 4.68250711,26.5141875 C5.01482307,27.3692083 5.45899436,28.0945 6.18185606,28.8170833 C6.90417609,29.5402083 7.62947531,29.9854583 8.48396337,30.3175 C9.31109699,30.6389792 10.2560443,30.8580833 11.6397462,30.9214583 C13.0264274,30.9845625 13.4692445,31 16.9995937,31 C20.5304847,31 20.9722185,30.9845625 22.3588996,30.9214583 C23.7428723,30.8580833 24.6886322,30.6389792 25.5157658,30.3175 C26.3705247,29.9854583 27.0947406,29.5402083 27.8170606,28.8170833 C28.5401931,28.0945 28.9843644,27.3692083 29.3174929,26.5144583 C29.6370796,25.6876042 29.8564568,24.7426667 29.9214575,23.35925 C29.9837498,21.9725833 30,21.5305833 30,18 C30,14.4694167 29.9837498,14.0263333 29.9214575,12.6396667 C29.8564568,11.2557083 29.6370796,10.3110417 29.3174929,9.48445833 C28.9843644,8.6294375 28.5401931,7.90414583 27.8170606,7.1815625 C27.0939281,6.4584375 26.3707955,6.01427083 25.5149533,5.6825 C24.6861946,5.36102083 23.7409765,5.14191667 22.3570037,5.07854167 C20.9703226,5.0154375 20.5288597,5 16.9971562,5 L17.0012188,5 Z M15.8349983,7.34270833 C16.1811269,7.34216667 16.5673392,7.34270833 17.0012188,7.34270833 C20.4722549,7.34270833 20.883655,7.35516667 22.2543568,7.41745833 C23.52187,7.47541667 24.2097939,7.68720833 24.6680486,7.86514583 C25.2747216,8.10077083 25.707247,8.3824375 26.1619809,8.8374375 C26.6169856,9.2924375 26.8986552,9.72577083 27.1348243,10.3324375 C27.3127637,10.7901458 27.5248284,11.4780625 27.5825165,12.7455625 C27.6448088,14.1159792 27.6583506,14.5276458 27.6583506,17.9970208 C27.6583506,21.4663958 27.6448088,21.8780625 27.5825165,23.2484792 C27.5245575,24.5159792 27.3127637,25.2038958 27.1348243,25.6616042 C26.8991969,26.2682708 26.6169856,26.70025 26.1619809,27.1549792 C25.7069761,27.6099792 25.2749924,27.8916458 24.6680486,28.1272708 C24.2103355,28.3060208 23.52187,28.5172708 22.2543568,28.5752292 C20.8839259,28.6375208 20.4722549,28.6510625 17.0012188,28.6510625 C13.5299118,28.6510625 13.1185117,28.6375208 11.7480807,28.5752292 C10.4805675,28.5167292 9.79264367,28.3049375 9.33411806,28.127 C8.72744508,27.891375 8.29410723,27.6097083 7.83910249,27.1547083 C7.38409775,26.6997083 7.10242815,26.2674583 6.86625902,25.6605208 C6.68831967,25.2028125 6.47625496,24.5148958 6.41856686,23.2473958 C6.35627454,21.8769792 6.34381608,21.4653125 6.34381608,17.9937708 C6.34381608,14.5222292 6.35627454,14.1127292 6.41856686,12.7423125 C6.4765258,11.4748125 6.68831967,10.7868958 6.86625902,10.3286458 C7.10188648,9.72197917 7.38409775,9.28864583 7.83910249,8.83364583 C8.29410723,8.37864583 8.72744508,8.09697917 9.33411806,7.8608125 C9.79237284,7.6820625 10.4805675,7.4708125 11.7480807,7.41258333 C12.9473432,7.35841667 13.412098,7.34216667 15.8349983,7.33945833 L15.8349983,7.34270833 Z M23.9405827,9.50125 C23.0793237,9.50125 22.3805665,10.1991875 22.3805665,11.0607083 C22.3805665,11.9219583 23.0793237,12.6207083 23.9405827,12.6207083 C24.8018417,12.6207083 25.500599,11.9219583 25.500599,11.0607083 C25.500599,10.1994583 24.8018417,9.50070833 23.9405827,9.50070833 L23.9405827,9.50125 Z M17.0012188,11.3239583 C13.3143262,11.3239583 10.3251076,14.3131458 10.3251076,18 C10.3251076,21.6868542 13.3143262,24.6746875 17.0012188,24.6746875 C20.6881113,24.6746875 23.6762466,21.6868542 23.6762466,18 C23.6762466,14.3131458 20.6878405,11.3239583 17.0009479,11.3239583 L17.0012188,11.3239583 Z M17.0012188,13.6666667 C19.394327,13.6666667 21.3345972,15.6066458 21.3345972,18 C21.3345972,20.3930833 19.394327,22.3333333 17.0012188,22.3333333 C14.6078397,22.3333333 12.6678403,20.3930833 12.6678403,18 C12.6678403,15.6066458 14.6078397,13.6666667 17.0012188,13.6666667 Z" id="Shape" fill="#FFFFFF" fill-rule="nonzero"></path>
            </g>
        </g>
    </g>
</svg>

<svg xmlns="http://www.w3.org/2000/svg" width="35" height="35"><title>instagram</title><desc>Created with Sketch.</desc><defs><radialGradient id="a" cx="26.563%" cy="107.702%" r="99.107%" fx="26.563%" fy="107.702%"><stop stop-color="#fd5" offset="0%"/><stop stop-color="#fd5" offset="10%"/><stop stop-color="#FF543E" offset="50%"/><stop stop-color="#C837AB" offset="100%"/></radialGradient><radialGradient id="b" cx="-16.751%" cy="7.204%" r="44.301%" fx="-16.751%" fy="7.204%"><stop stop-color="#3771C8" offset="0%"/><stop stop-color="#3771C8" offset="12.8%"/><stop stop-color="#60f" stop-opacity="0" offset="100%"/></radialGradient></defs><g fill="none"><g><g><path id="Path" fill="url(#a)" d="M17.5 0c-7.3 0-9.44 0-9.85.04C6.15.17 5.22.4 4.2.9c-.78.4-1.4.85-2 1.48C1.07 3.53.4 4.95.15 6.64.04 7.46 0 7.62 0 11.8c0 1.4 0 3.23 0 5.7 0 7.3 0 9.43.04 9.85.13 1.45.35 2.37.84 3.38.92 1.92 2.7 3.36 4.78 3.9.72.2 1.5.3 2.54.34.43.02 4.85.03 9.27.03s8.84 0 9.26-.03c1.2-.05 1.87-.15 2.63-.34 2.1-.54 3.84-1.96 4.78-3.9.48-1 .72-1.95.83-3.33.02-.3.03-5.1.03-9.9 0-4.8 0-9.6-.03-9.9-.1-1.42-.36-2.37-.85-3.36-.4-.82-.85-1.43-1.5-2.06C31.48 1.08 30.06.4 28.37.16 27.56.04 27.38 0 23.2 0h-5.7z"/><path fill="url(#b)" d="M17.5 0c-7.3 0-9.44 0-9.85.04C6.15.17 5.22.4 4.2.9c-.78.4-1.4.85-2 1.48C1.07 3.53.4 4.95.15 6.64.04 7.46 0 7.62 0 11.8c0 1.4 0 3.23 0 5.7 0 7.3 0 9.43.04 9.85.13 1.45.35 2.37.84 3.38.92 1.92 2.7 3.36 4.78 3.9.72.2 1.5.3 2.54.34.43.02 4.85.03 9.27.03s8.84 0 9.26-.03c1.2-.05 1.87-.15 2.63-.34 2.1-.54 3.84-1.96 4.78-3.9.48-1 .72-1.95.83-3.33.02-.3.03-5.1.03-9.9 0-4.8 0-9.6-.03-9.9-.1-1.42-.36-2.37-.85-3.36-.4-.82-.85-1.43-1.5-2.06C31.48 1.08 30.06.4 28.37.16 27.56.04 27.38 0 23.2 0h-5.7z"/><path fill="#fff" fill-rule="nonzero" d="M17 5c-3.53 0-3.97.02-5.36.08-1.38.06-2.33.28-3.15.6-.87.33-1.6.78-2.32 1.5-.72.72-1.16 1.45-1.5 2.3-.32.83-.54 1.78-.6 3.16C4.02 14.04 4 14.47 4 18c0 3.53.02 3.97.08 5.36.06 1.38.28 2.33.6 3.15.33.87.78 1.6 1.5 2.32.72.72 1.45 1.17 2.3 1.5.83.32 1.78.54 3.16.6 1.4.06 1.83.08 5.36.08 3.53 0 3.97-.02 5.36-.08 1.38-.06 2.33-.28 3.16-.6.85-.33 1.57-.78 2.3-1.5.72-.73 1.16-1.45 1.5-2.3.32-.83.54-1.78.6-3.16.06-1.4.08-1.83.08-5.36 0-3.53-.02-3.97-.08-5.36-.06-1.38-.28-2.33-.6-3.16-.34-.85-.78-1.58-1.5-2.3-.73-.72-1.45-1.17-2.3-1.5-.83-.32-1.78-.54-3.16-.6C20.96 5.02 20.53 5 17 5zm-1.17 2.34c.35 0 .74 0 1.17 0 3.47 0 3.88.02 5.25.08 1.27.06 1.96.27 2.42.45.6.23 1.04.5 1.5.97.45.45.73.9.96 1.5.18.45.4 1.14.45 2.4.06 1.38.08 1.8.08 5.26 0 3.47-.02 3.88-.08 5.25-.06 1.27-.27 1.95-.45 2.4-.23.62-.5 1.05-.97 1.5-.45.46-.9.74-1.5.98-.45.18-1.14.4-2.4.45-1.38.06-1.8.07-5.26.07-3.47 0-3.88 0-5.25-.07-1.27-.06-1.96-.28-2.42-.45-.6-.24-1.04-.52-1.5-.98-.45-.45-.73-.88-.96-1.5-.18-.45-.4-1.14-.45-2.4-.06-1.37-.08-1.78-.08-5.26 0-3.48.02-3.9.08-5.26.06-1.27.27-1.95.45-2.4.23-.62.5-1.05.97-1.5.45-.46.9-.74 1.5-.98.45-.18 1.14-.4 2.4-.45 1.2-.04 1.67-.06 4.1-.06zm8.1 2.16c-.85 0-1.55.7-1.55 1.56 0 .86.7 1.56 1.56 1.56.86 0 1.56-.7 1.56-1.56 0-.86-.7-1.56-1.56-1.56zM17 11.32c-3.7 0-6.67 3-6.67 6.68 0 3.7 2.98 6.67 6.67 6.67 3.7 0 6.68-2.98 6.68-6.67 0-3.7-3-6.68-6.68-6.68zm0 2.35c2.4 0 4.33 1.94 4.33 4.33 0 2.4-1.94 4.33-4.33 4.33-2.4 0-4.33-1.94-4.33-4.33 0-2.4 1.94-4.33 4.33-4.33z"/></g></g></g></svg>
